X:108
T:Valse triste
C:B. Loffet
M:3/4
L:1/4
K:C
E2F|E2F|E3|EFE|\
D2E|D2E|D3|DED|\
C2D|C2D|C3|CDC|\
B,3-|B,CD|B,3|B,CD|!
E3|FEF|A3|EAE|\
D3|EDE|B3|DBD|\
C3|DCD|A3|ABc|\
B3|Bcd|B3|B,CD:|
